X:003
T: Yemon o Knock
T: Eamonn a' Chnuic
N: O'Farrell's Pocket Companion v.1 (Sky ed. p.13)
N: Irish = Ned of the Hill
N: O'Farrell's notation seems suspect ...
M: 3/4
R: waltz
L: 1/8
Q: 120
K: G
DE| G2 B2 AG| B2 g2 f>d| ed/B/ A2 B2 | AG G2 F2|
ED/E/ D3E| G2 B2 A>G| B2 g2 f>d| ed/B/ A2 B2 |
AG/A/ G3||de/f/ g2 ge| a>g f2 ed/B/| d4 gf |
e>d B/A/G/E/ G/A/B/d/| e>f g>a g/a/b|
D>E G2 B2 | AG B2 g2 | fd e/d/B/A/ A2|
G/A/B/d/ e/d/B/G/ AG |G3||
